OK-Plus/Components/Asset Tree Template/Icons/Final Icons/task_inherited_from_standard.svg

<svg xmlns="http://www.w3.org/2000/svg" width="24" height="24">
  <path d="M23.6775 5.73530457c-.075-.24783692-.276-.4410907-.531-.50747559-.258-.06933533-.528.00442566-.7155.18587769l-3.924 3.77213684-2.871-.56500916-.5715-2.81324402 3.9675-3.81344299c.189-.18145203.267-.44699158.2055-.69925415-.0615-.25226257-.252-.45436768-.504-.53255432-.7965-.24488648-1.527-.3658545-2.2335-.3658545-4.1355 0-7.5 3.30891785-7.5 7.37609864 0 .47649597.057.95889282.177 1.48997192-.843.68302674-1.644 1.27163937-2.5515 1.93843877-1.2975.9529919-2.7675 2.0313775-4.773 3.6969006C.675 15.909895 0 17.3452838 0 18.836731 0 21.683905 2.355 24 5.25 24c1.5315 0 2.9895-.6727002 3.993-1.8440247 1.7235-1.9871209 2.8365-3.4461132 3.816-4.7339801.663-.8718548 1.248-1.6389691 1.9245-2.4488647.54.1194928 1.032.1755511 1.5165.1755511 4.1355 0 7.5-3.3089178 7.5-7.37609859 0-.64467102-.102-1.29081726-.3225-2.03727844zM5.25 20.3119507c-.8295 0-1.5-.6594232-1.5-1.4752197 0-.8157966.6705-1.4752198 1.5-1.4752198s1.5.6594232 1.5 1.4752198c0 .8157965-.6705 1.4752197-1.5 1.4752197z"/>
</svg>

<svg xmlns="http://www.w3.org/2000/svg" width="24" height="24" viewBox="0 0 24 24">
  <path d="M23.6775,5.73530457 C23.6025,5.48746765 23.4015,5.29421387 23.1465,5.22782898 C22.8885,5.15849365 22.6185,5.23225464 22.431,5.41370667 L18.507,9.18584351 L15.636,8.62083435 L15.0645,5.80759033 L19.032,1.99414734 C19.221,1.81269531 19.299,1.54715576 19.2375,1.29489319 C19.176,1.04263062 18.9855,0.840525513 18.7335,0.762338867 C17.937,0.517452393 17.2065,0.396484375 16.5,0.396484375 C12.3645,0.396484375 9,3.70540222 9,7.77258301 C9,8.24907898 9.057,8.73147583 9.177,9.26255493 C8.334,9.94558167 7.533,10.5341943 6.6255,11.2009937 C5.328,12.1539856 3.858,13.2323712 1.8525,14.8978943 C0.675,15.909895 0,17.3452838 0,18.836731 C0,21.683905 2.355,24 5.25,24 C6.7815,24 8.2395,23.3272998 9.243,22.1559753 C10.9665,20.1688544 12.0795,18.7098621 13.059,17.4219952 C13.722,16.5501404 14.307,15.7830261 14.9835,14.9731305 C15.5235,15.0926233 16.0155,15.1486816 16.5,15.1486816 C20.6355,15.1486816 24,11.8397638 24,7.77258301 C24,7.12791199 23.898,6.48176575 23.6775,5.73530457 Z M5.25,20.3119507 C4.4205,20.3119507 3.75,19.6525275 3.75,18.836731 C3.75,18.0209344 4.4205,17.3615112 5.25,17.3615112 C6.0795,17.3615112 6.75,18.0209344 6.75,18.836731 C6.75,19.6525275 6.0795,20.3119507 5.25,20.3119507 Z"/>
</svg>
